X:1
T:All pleasure is of this condition - Wilbye
T:#
%%score { 1 | 2 } 3 4 5
L:1/8
Q:1/4=120
M:2/2
K:F
V:1 treble nm="Soprano I" snm="S"
V:2 treble 
V:3 treble nm="Alto" snm="A"
V:4 treble-8 nm="Tenor" snm="T"
V:5 bass nm="Bass" snm="B"
V:1
"^John Wilbye\n (1574-1638)" z4!mf! G4 |"^All pleasure is of this condition" d6 d2 | d6 d2 | %3
w: All|plea- sure|is of|
 c2 B2 d2 c2 | B4!p! F2 G2- |[M:2/2] G2 A4 B2- | B2 G4 c2- | c2 B2 A2 A2 | B4!f! G4 | A6 B2 | %10
w: this con- di- ti-|on, It pricks|* men for\-|* ward to|* fru- i- ti-|on, all|plea- sure|
 A6 B2 | B2 B2 c2 F2 | F4 D4 | _E4 F4 | G2 G4 A2- | A2 G2 G2 ^F2 | G4!p! A2 B2- | B2 c4 d2- | %18
w: is of|this con- di- ti-|on, it|pricks men|for- ward to|* fru- i- ti-|on, it pricks|* men for\-|
 d2 e4 f2- | f2 g2 e2 e2 | d4!f! d4 | B4 c4 | A8 | f4 f2 f2 | f8- | f4 d4 | e8- | e2 c2 c2 c2 | %28
w: * ward to|* fru- i- ti-|on, But|if en-|joy'd,|then like the|hum\-|* ming|bee,|* then like the|
 d8- | d4 B4 | c8- | c2 A2 A2 A2 | B8- | B4 G4 | A8- | A4 (F2 G2) | A2 B2 c4- | c4 =B4 | c8 | %39
w: hum\-|* ming|bee,|* then like the|hum\-|* ming|bee,|* The *|ho- ney be\-|* ing|shed,|
 z2 c2 c2 c2 | (d_efe d2 cB | A2) G2 G2 ^F2 | G2!p! d2 _e2 f2 | g2 A2 =B2 c2 | d4 G4 | G4 z4 | z8 | %47
w: a- way doth|flee, * * * * * *|* a- way doth|flee; But leaves a|sting, that wounds the|in- ward|heart,||
 z8 | z4 z2"^cresc." d2 | _e2 f2 g2 A2 | =B4 z2 c2 | _e4 d4 | c8- | c6 A2 | B2 c2 d2 E2 | ^F4 G4 | %56
w: |But|leaves a sting, that|wounds the|in- ward|heart,|* but|leaves a sting, that|wounds the|
 B4 A4 | G4 z4 | z4 G4 | d6 d2 | d8 | z8 | z8 | z8 | z4!pp! d4 | d6 c2 | B8- | B4 B4 | c4 F4 | %69
w: in- ward|heart,|the|in- ward|heart,||||With|gnaw- ing|grief|* and|nev- er-|
 F8- | F4 F4 | F8 |"^cresc." F4 G4- x4 | G4 F4 | x8 | B6 A2 | G2 F2 G4- | G2 G2 F4 | z12 | z12 | %80
w: end\-|* ing|smart,|with gnaw\-|* ing||grief and|nev- er- end\-|* ing smart,|||
 z8 | z8 | z8 |"^cresc." A4 B4- x4 | B4 A4 x4 | d6 c2 x4 | x8 | B2 A2 B4- | B2 B2 A4- | A4!pp! d4 | %90
w: |||with gnaw\-|* ing|grief and||nev- er- end\-|* ing smart,|* with|
 f6 e2 | d4 c4 | B4 A4 | d8- | d8 | d8 x8 | d16 |] x16 |] %98
w: gnaw- ing|grief and|nev- er-|end\-||ing|smart.||
V:2
 z4!mf! B4 | (AGAB A2) G2 | ^F6 B2 | G2 B2 B2 A2 | B4!p! D4 |[M:2/2] =E4 F4 | G4 E4 | %7
w: All|plea\- * * * * sure|is of|this con- di- ti-|on, It|pricks men|for- ward|
 ^F2 G2 G2 F2 | G4!f! d4 | d6 d2 | d6 f2 | _e2 d2 c2 c2 | B6 d2 | c3 B A2 d2 | B4 _e4 | d6 d2 | %16
w: to fru- i- ti-|on, all|plea- sure|is of|this con- di- ti-|on, it|pricks men for- ward|to fru-|i- ti-|
 d4!p! ^F4 | G4 A4 | B4 c4 | d2 d2 d2 ^c2 | d4!f! ^F4 | G6 A2 | ^F2 d2 d2 d2 | d6 d2 | %24
w: on, it|pricks men|for- ward|to fru- i- ti-|on, But|if en-|joy'd, then like the|hum- ming|
 d2 =F2 F2 F2 | (FGAB A2) B2 | c8- | c4 z4 | z2 D2 D2 D2 | (DEFG F2) G2 | A8- | A4 z4 | %32
w: bee, then like the|hum\- * * * * ming|bee,||then like the|hum\- * * * * ming|bee,||
 z2 B,2 B,2 B,2 | (B,CD_E D2) =E2 | F8- | F4 A4 | A4 G4 | F4 F4 | E8 | z2 A2 A2 A2 | (Bcdc B2 AG | %41
w: then like the|hum\- * * * * ming|bee,|* The|ho- ney|be- ing|shed|a- way doth|flee, * * * * * *|
 ^F2 B2) A2 A2 | G4 z4 | z8 | z8 | z4 z2!p! d2 | _e2 f2 g2 A2 | =B4 c4 | _e4 d4 | %49
w: * a- way doth|flee;|||But|leaves a sting, that|wounds the|in- ward|
 c2"^cresc." D2 _E2 F2 | G4 A4 | G6 D2 | E2 F2 G2 E2 | F8- | F4 z4 | z8 | z4 z2 A2 | B2 c2 d2 E2 | %58
w: heart, but leaves a|sting, that|wounds, but|leaves a sting, that|wounds,|||but|leaves a sting, that|
 ^F4 z2 G2 | B4 A4 | G4 z4 | z8 | z8 | z8 | z8 | z8 | z8 | z8 | z8 | z8 | z8 | z4 z4 | %72
w: wounds the|in- ward|heart,||||||||||||
"^cresc." D4 _E4- x4 | E4 D4 | x8 | G6 F2 | _E2 D2 E4- | E2 _E2 D4 | z12 | z12 | z8 | z8 | z8 | %83
w: With gnaw\-|* ing||grief and|nev- er- end\-|* ing smart,||||||
"^cresc." ^F4 G4- x4 | G4 ^F4 x4 | B6 A2 x4 | x8 | G2 ^F2 G4- | G2 G2 ^F4 | z8 |!pp! A8 | f6 e2 | %92
w: with gnaw\-|* ing|grief and||nev- er- end\-|* ing smart,||with|gnaw- ing|
 d4 c4 | B4 A4- | A4 G4- | G4 ^F4 x8 | G16 |] x16 |] %98
w: grief and|nev- er\-|* end\-|* ing|smart.||
V:3
!mf! G8 | (^FEFG F2) G2 | D6 B,2 | _E2 G2 F3 F | B,4!p! B,4 |[M:2/2] C4 D4 | _E3 D C2 C2 | D6 D2 | %8
w: All|plea\- * * * * sure|is of|this con- di- ti-|on, It|pricks men|for- ward to fru-|i- ti-|
 D6!f! D2 | D4 D4 | D6 D2 | B,2 F2 F2 C2 | D8 | z4 z2 B,2 | G,2 C2 C (B,A,G,) | ^F,2 G,2 A,3 A, | %16
w: on, all|plea- sure|is of|this con- di- ti-|on,|it|pricks men for- ward * *|to fru- i- ti-|
 =B,4!p! D4 | _E4 F4 | G4 A4 | B2 G2 A3 A | D4!f! D4 | D4 _E4 | D8 | z2 F2 F2 F2 | (FGAB A2) A2 | %25
w: on, it|pricks men|for- ward|to fru i- ti-|on, But|if en-|joy'd,|then like the|hum\- * * * * ming|
 A2 F2 F2 F2 | (EFGA G2) G2 | G2 E2 E2 E2 | (DEFG F2) F2 | F2 D2 D2 D2 | (CDEF E2) E2 | %31
w: bee, then like the|hum\- * * * * ming|bee, then like the|hum\- * * * * ming|bee, then like the|hum\- * * * * ming|
 E2 C2 C2 C2 | (B,CD_E D2) D2 | D2 B,2 B,2 B,2 | (A,B,CD C2) (DE) | F2 A,2 A,2 B,2 | C4 G,4 | %37
w: bee, then like the|hum\- * * * * ming|bee, then like the|hum\- * * * * ming *|bee, The ho- ney|be- ing|
 A,4 F,4 | C8- | C4 C4 | B,4 D4 | D4 D4 | D4 z2!p! D2 | C4 _E4 | D2 (F3 _EDC) | B,2 C2 D3 D | %46
w: shed, a-|way|* doth|flee, a-|way doth|flee; But|leaves a|sting, that * * *|wounds the in- ward|
 G,4 z4 | z2 D2 _E2 F2 | G2 A,2"^cresc." =B,4 | (C6 _B,A,) | G,4 F,4 | G,8- | G,4 C4 | %53
w: heart,|but leaves a|sting, that wounds|the * *|in- ward|heart,|* but|
 C2 D2 _E2 C2 | D8 | z2 A,2 B,2 C2 | D2 E,2 ^F,2 F,2 | G,2 A,2 B,2 C2 | D4 E4 | D6 D2 | D4!pp! D4 | %61
w: leaves a sting, that|wounds,|but leaves a|sting, that wounds the|heart, a sting, that|wounds the|in- ward|heart With|
 F8 | _E4 D4- | D4 C4 | D4 B,4 | A,6 A,2 | G,4 B,4 | _E8- | E4 D4 | (C4 B,4) | C8 | D8 | z12 | z8 | %74
w: gnaw-|ing grief|* and|nev- er-|end- ing|smart, and|nev\-|* er-|end\- *|ing|smart,|||
 z8 | z8 | z8 |!pp! G,4 A,4- | A,4 G,4 x4 | C6 B,2 x4 | x8 | A,2 G,2 A,4- | A,2 A,2 G,4 | z12 | %84
w: |||with gnaw\-|* ing|grief and||nev- er- end\-|* ing smart,||
 z12 | z8 x4 | z8 | z4!pp! D4 | =F6 E2 | D4 C4 | B,4 A,4 | D4 D4 | F6 E2 | D8- | D4 D4 | D16 | %96
w: |||with|gnaw- ing|grief, with|gnaw- ing|grief and|nev- er-|end\-|* ing|smart.|
 x16 |] x16 |] %98
w: ||
V:4
 z8 | z8 | z8 | z8 | z8 |[M:2/2][K:treble-8] z8 | z8 | z8 | z4!f! B4 | (AGAB A2) G2 | ^F6 B2 | %11
w: ||||||||All|plea\- * * * * sure|is of|
 G2 B2 B2 A2 | B4 F2 G2- | G2 A4 B2- | B2 G4 c2- | c2 B2 A2 A2 | G4 z4 | z8 | z8 | z8 | z8 | z8 | %22
w: this con- di- ti-|on, It pricks|* men for\-|* ward to|* fru- i- ti-|on,||||||
 z2!f! =f2 f2 f2 | (fgab a2) a2 | a3 g f3 e | (defg a2) f2 | g2 e2 e2 e2 | (efga g2) a2 | b8- | %29
w: Then like the|hum\- * * * * ming|bee, then like the|hum\- * * * * ming|bee, then like the|hum\- * * * * ming|bee,|
 b4 z4 | z2 c2 c2 c2 | (cdef e2) ^f2 | g8- | g4 z4 | z2 A2 A2 A2 | (ABcd c2) (de) | f2 c2 c2 c2 | %37
w: |then like the|hum\- * * * * ming|bee,||then like the|hum\- * * * * ming *|bee, The ho- ney|
 d4 d4 | G2 G2 G2 G2 | (ABcB A2) A2 | d6 E2 | ^F2 G2 A2 A2 | =B4 z4 | z8 | z2!p! d2 _e2 f2 | %45
w: be- ing|shed, a- way doth|flee * * * * doth|flee; But|leaves a sting, that|wounds,||but leaves a|
 g2 A2 =B2 B2 | c6 c2 | =B2 G2 G2 A2 | =B2 c2 d4 | z4"^cresc." c4 | d2 e2 f2 A2 | =B2 c2 c2 B2 | %52
w: sting, that wounds the|in- ward|heart, but leaves a|sting, that wounds,|but|leaves a sting, that|wounds the in- ward|
 c6 G2 | A2 B2 c2 c2 | B4 z4 | z4 d4 | ^F2 G2 A4 | z4 G4 | A2 B2 c2 E2 | ^F2 G2 G2 F2 | %60
w: heart, but|leaves a sting, that|wounds|the|in- ward heart,|but|leaves a sting, that|wounds the in- ward|
 G2!pp! B2 d4- | d4 c4 | B4 A4 | G8 | ^F4 G4- | G4 ^F4 | G4 G4 | G6 =F2 | (G2 A2) B4 | A4 B4- | %70
w: heart With gnaw\-|* ing|grief and|nev-|er- end\-|* ing|smart, and|ne- ver-|end\- * ing|smart, ne\-|
 B4 A4 |"^cresc." B8 | B8 x4 | B8 | x8 | z8 | z8 | z8 |!pp! E4 F4- x4 | F4 E4 x4 | A6 G2 | x8 | %82
w: * ver-|end-|ing|smart,|||||with gnaw\-|* ing|grief and||
 F2 E2 F4- | F2 F2 E4 x4 | z12 | z12 | z8 | z8 | z4!pp! A4 | d6 c2 | B2 B2 A4 | d8 | f6 e2 | %93
w: nev- er- end\-|* ing smart,|||||and|nev- er-|end- ing smart,|with|gnaw- ing|
 d4 c4 | B4 B4 | A4 A4 x8 | =B16 |] x16 |] %98
w: grief and|nev- er-|end- ing|smart.||
V:5
 z8 | z8 | z8 | z8 | z8 |[M:2/2] z8 | z8 | z8 |!f! G,8 | (^F,E,F,G, F,2) G,2 | D,6 B,,2 | %11
w: ||||||||All|plea\- * * * * sure|is of|
 _E,2 B,,2 F,2 F,2 | B,,4 B,,4 | C,4 D,4 | _E,3 D, C,2 C,2 | D,6 D,2 | G,4 z4 | z8 | z8 | z8 | %20
w: this con- di- ti-|on, It|pricks men|for- ward to fru-|i- ti-|on,||||
 z4!f! D,4 | G,4 C,4 | D,8 | D4 D2 D2 | D8- | D4 D4 | C8 | C4 C2 C2 | B,8- | B,4 B,4 | A,8 | %31
w: But|if en-|joy'd,|then like the|hum\-|* ming|bee,|then like the|hum\-|* ming|bee,|
 A,4 A,2 A,2 | G,8- | G,4 G,4 | F,8- | F,4 F,4 | F,4 E,4 | D,6 D,2 | C,8 | F,8 | (B,,6 C,2 | %41
w: then like the|hum\-|* ming|bee,|* The|ho- ney|be- ing|shed,|a-|way *|
 D,4) D,4 | G,6!p! D,2 | _E,2 F,2 G,2 A,,2 | =B,,4 C,4 | _E,4 D,4 | C,2 D,2 _E,2 F,2 | G,8- | G,8 | %49
w: * doth|flee; But|leaves a sting, that|wounds the|in- ward|heart, But leaves a|sting,||
 z8 | z8 | z8 |"^cresc." C,8 | F,4 F,4 | B,,6 C,2 | D,8 | D,8 | (G,6 F,E, | D,4) C,4 | D,8 | %60
w: |||but|leaves a|sting, that|wounds|the|in\- * *|* ward|heart|
!pp! G,4 B,4- | B,4 A,4 | G,4 F,4 | _E,4 E,4 | D,8 | D,8 | _E,8- | E,4 D,4 | C,4 B,,4 | F,8- | %70
w: With gnaw\-|* ing|grief, with|gnaw- ing|grief|and|nev\-|* er-|end- ing|smart,|
 F,8 |"^cresc." B,,8 | B,,4 B,,4 x4 | B,,8- | x8 | B,,4 B,,4 | B,,8 | B,,8 |!pp! C,8 x4 | C,8 x4 | %80
w: |with|gnaw- ing|grief,||* with|gnaw-|ing|grief|and|
 C,4 C,4 | x8 | C,4 C,4 | C,8 x4 |"^cresc." D,8 x4 | D,4 D,4 x4 | D,8- | x8 | D,4!pp! D,4 | %89
w: ne- ver-||end- ing|smart,|with|gnaw- ing|grief||* and|
 D,4 D,4 | D,4 D,4 | D,8- | D,4 D,4 | D,8 | D,8 | D,8 x8 | D,8 x8 |] G,16 |] %98
w: ne- ver-|end- ing|smart,|* and|ne-|ver-|end-|ing|smart.|

